_includes/icons/color-upload.svg

<svg fill="#666" height="50" viewBox="0 0 48 48" width="50" xmlns="http://www.w3.org/2000/svg"><g fill="#009688"><path d="m24 10.898438 11 13.101562h-22z"/><path d="m20 40h8v4h-8z"/><path d="m20 34h8v4h-8z"/><path d="m20 21h8v11h-8z"/><path d="m6 4h36v4h-36z"/></g></svg>

<svg xmlns="http://www.w3.org/2000/svg" viewBox="0 0 48 48" width="50" height="50" fill="#666"><g fill="#009688"><path d="M 24 10.898438 L 35 24 L 13 24 Z"/><path d="M 20 40 L 28 40 L 28 44 L 20 44 Z"/><path d="M 20 34 L 28 34 L 28 38 L 20 38 Z"/><path d="M 20 21 L 28 21 L 28 32 L 20 32 Z"/><path d="M 6 4 L 42 4 L 42 8 L 6 8 Z"/></g></svg>
